static/images/email_purple.svg

<svg height="18" viewBox="0 0 22 18" width="22" xmlns="http://www.w3.org/2000/svg"><path d="m20 4h-16a2 2 0 0 0 -1.99 2l-.01 12a2.006 2.006 0 0 0 2 2h16a2.006 2.006 0 0 0 2-2v-12a2.006 2.006 0 0 0 -2-2zm-8 7-8-5-1-1 9 6 9-6z" fill="none" stroke="#520993" stroke-width="2" transform="translate(-1 -3)"/></svg>

<svg xmlns="http://www.w3.org/2000/svg" width="22" height="18" viewBox="0 0 22 18">
  <path id="ic_local_post_office_24px" d="M20,4H4A2,2,0,0,0,2.01,6L2,18a2.006,2.006,0,0,0,2,2H20a2.006,2.006,0,0,0,2-2V6A2.006,2.006,0,0,0,20,4Zm-8,7L4,6,3,5l9,6,9-6Z" transform="translate(-1 -3)" fill="none" stroke="#520993" stroke-width="2"/>
</svg>
